build/img/gl-logo.svg

<svg width="124" height="60" viewBox="0 0 124 60" fill="none" xmlns="http://www.w3.org/2000/svg">
<path d="M52.4461 28.2289V26.4625H50.8066C50.1359 26.4625 49.5956 25.9233 49.5956 25.2539H53.7503V28.638C53.2472 29.5119 52.5952 30.1813 51.7754 30.6461C50.9557 31.111 50.0428 31.3341 49.0181 31.3341C47.4531 31.3341 46.1676 30.8135 45.1429 29.7908C44.1183 28.7681 43.6152 27.448 43.6152 25.8675C43.6152 24.287 44.1183 22.9668 45.1429 21.9442C46.1676 20.9215 47.4531 20.4009 49.0181 20.4009C49.9869 20.4009 50.8625 20.6054 51.6636 21.0331C52.4648 21.4607 53.0982 22.0557 53.6012 22.8367C53.0609 23.2272 52.3157 23.1714 51.8499 22.7251C51.6264 22.502 51.3655 22.316 51.0861 22.1487C50.4713 21.7954 49.782 21.6281 49.0181 21.6281C47.8444 21.6281 46.8756 22.0371 46.0931 22.8367C45.3292 23.6362 44.938 24.6589 44.938 25.8861C44.938 27.1133 45.3292 28.1359 46.0931 28.9355C46.857 29.735 47.8444 30.1441 49.0181 30.1441C49.7447 30.1441 50.3968 29.9953 50.9743 29.6792C51.5332 29.3259 52.0363 28.8425 52.4461 28.2289Z" fill="white"/>
<path d="M56.3958 20.6239H64.6119C64.6119 21.2932 64.0716 21.8325 63.4009 21.8325H57.6813V25.2723H61.8918C61.8918 25.9417 61.3515 26.4809 60.6808 26.4809H57.6999V29.8836H63.848C64.5187 29.8836 65.059 30.4229 65.059 31.0922H56.3958V20.6239Z" fill="white"/>
<path d="M67.7046 31.0551V20.6239C68.1331 20.6239 68.5429 20.8098 68.841 21.1445L75.1754 28.4333V21.944C75.1754 21.2189 75.753 20.6424 76.4796 20.6424V31.0736C76.0511 31.0736 75.6598 30.8877 75.3804 30.5716L69.0087 23.2642V29.7721C69.0087 30.4786 68.4312 31.0551 67.7046 31.0551Z" fill="white"/>
<path d="M79.1437 20.6239H87.3598C87.3598 21.2932 86.8195 21.8325 86.1488 21.8325H80.4292V25.2723H84.6211C84.6211 25.9417 84.0808 26.4809 83.4101 26.4809H80.4292V29.8836H86.5773C87.248 29.8836 87.7883 30.4229 87.7883 31.0922H79.1437V20.6239Z" fill="white"/>
<path d="M90.4525 31.0551V20.6239H96.4515C97.4762 20.6239 98.2773 20.8842 98.8549 21.3862C99.4324 21.9068 99.7305 22.6134 99.7305 23.5245C99.7305 24.2869 99.5069 24.9377 99.0412 25.4583C98.594 25.9975 97.9792 26.3322 97.234 26.4624L99.8423 31.0551H99.153C98.6872 31.0551 98.2587 30.8133 98.0351 30.4043L95.7995 26.4995H91.738V29.7721C91.7566 30.4786 91.1791 31.0551 90.4525 31.0551ZM96.3584 25.2723C97.0105 25.2723 97.5135 25.1236 97.8488 24.8447C98.1842 24.5472 98.3519 24.1381 98.3519 23.5617C98.3519 23.0225 98.1842 22.5948 97.8488 22.2787C97.5135 21.9812 97.0291 21.8139 96.4143 21.8139H91.738V25.2723H96.3584Z" fill="white"/>
<path d="M101.668 31.0551L106.792 20.6239H107.872L113.051 31.0551H113.014C112.176 31.0551 111.393 30.5902 111.021 29.8279L110.22 28.2474H104.444L103.68 29.8093C103.308 30.5716 102.525 31.0551 101.668 31.0551ZM105.04 27.0202H109.642L107.332 22.3903L105.04 27.0202Z" fill="white"/>
<path d="M114.877 20.6239H114.97C115.641 20.6239 116.181 21.1631 116.181 21.8325V29.865H121.808C122.478 29.865 123.019 30.4043 123.019 31.0736H114.877V20.6239Z" fill="white"/>
<path d="M43.9692 38.6041H44.0624C44.7331 38.6041 45.2733 39.1434 45.2733 39.8127V47.8453H50.8998C51.5705 47.8453 52.1108 48.3845 52.1108 49.0539H43.9692V38.6041Z" fill="white"/>
<path d="M54.8122 38.6041H63.0283C63.0283 39.2735 62.488 39.8127 61.8173 39.8127H56.0977V43.2526H60.2896C60.2896 43.922 59.7493 44.4612 59.0786 44.4612H56.0977V47.8639H62.2458C62.9165 47.8639 63.4568 48.4031 63.4568 49.0725H54.8122V38.6041Z" fill="white"/>
<path d="M70.6296 38.5858C72.269 38.5858 73.6104 39.0692 74.6165 40.0361C75.6225 41.003 76.1256 42.2674 76.1256 43.8293C76.1256 45.3912 75.6225 46.6555 74.6351 47.6038C73.6477 48.5521 72.3063 49.017 70.6296 49.017H66.1396V38.5858H70.6296ZM70.6296 39.7944H67.4437V47.827H70.6296C71.9151 47.827 72.9397 47.4737 73.6663 46.7485C74.4116 46.0233 74.7655 45.0565 74.7655 43.8293C74.7655 42.6207 74.3929 41.6538 73.6291 40.91C72.9025 40.1663 71.8964 39.7944 70.6296 39.7944Z" fill="white"/>
<path d="M87.6765 46.2092V44.4428H86.037C85.3663 44.4428 84.826 43.9035 84.826 43.2342H88.9807V46.6183C88.4776 47.4922 87.8256 48.1616 87.0058 48.6264C86.1861 49.0913 85.2732 49.3144 84.2485 49.3144C82.6835 49.3144 81.398 48.7938 80.3733 47.7711C79.3487 46.7484 78.8456 45.4282 78.8456 43.8478C78.8456 42.2673 79.3487 40.9471 80.3733 39.9244C81.398 38.9018 82.6835 38.3811 84.2485 38.3811C85.2173 38.3811 86.0929 38.5857 86.894 39.0133C87.6951 39.441 88.3286 40.036 88.8316 40.8169L88.6639 40.9285C88.1795 41.2632 87.5461 41.1702 87.1362 40.7426C86.894 40.5008 86.6332 40.2963 86.3165 40.1104C85.7017 39.7571 85.0123 39.5897 84.2485 39.5897C83.0748 39.5897 82.106 39.9988 81.3235 40.7984C80.5596 41.5979 80.1684 42.6206 80.1684 43.8478C80.1684 45.075 80.5596 46.0976 81.3235 46.8972C82.0873 47.6967 83.0748 48.1058 84.2485 48.1058C84.9751 48.1058 85.6272 47.957 86.2047 47.6409C86.7636 47.3062 87.2666 46.8228 87.6765 46.2092Z" fill="white"/>
<path d="M91.6821 38.6041H99.8982C99.8982 39.2735 99.3579 39.8127 98.6872 39.8127H92.9676V43.2526H97.1595C97.1595 43.922 96.6192 44.4612 95.9485 44.4612H92.9676V47.8639H99.1157C99.7864 47.8639 100.327 48.4031 100.327 49.0725H91.6821V38.6041Z" fill="white"/>
<path d="M103.028 48.9798V38.6416C103.028 38.623 103.047 38.5858 103.084 38.5858H109.027C110.052 38.5858 110.853 38.8461 111.431 39.3481C112.008 39.8688 112.306 40.5753 112.306 41.4864C112.306 42.2488 112.083 42.8996 111.617 43.4202C111.17 43.9408 110.592 44.2755 109.884 44.4243C109.847 44.4243 109.828 44.4615 109.847 44.4986L112.381 48.9612C112.399 48.9984 112.381 49.0356 112.343 49.0356H111.71C111.263 49.0356 110.853 48.7938 110.629 48.4034L108.394 44.4986C108.394 44.48 108.375 44.48 108.356 44.48H104.37C104.351 44.48 104.314 44.4986 104.314 44.5358V47.8084C104.314 48.4963 103.755 49.0542 103.065 49.0542C103.047 49.0356 103.028 49.017 103.028 48.9798ZM104.332 43.1971C104.332 43.2157 104.351 43.2528 104.388 43.2528H108.953C109.605 43.2528 110.108 43.1041 110.443 42.8252C110.778 42.5277 110.946 42.1186 110.946 41.5422C110.946 41.003 110.778 40.5753 110.443 40.2592C110.108 39.9617 109.623 39.7944 109.009 39.7944H104.37C104.351 39.7944 104.314 39.813 104.314 39.8502V43.1971H104.332Z" fill="white"/>
<path fill-rule="evenodd" clip-rule="evenodd" d="M0.417271 55.4357C0.556276 54.9468 0.705974 54.5111 0.791515 54.203C1.41169 52.1308 3.11183 48.2308 3.11183 48.2308C5.47492 43.215 8.90728 38.2204 12.0937 33.6828C12.1365 32.11 11.9761 30.7605 11.6339 29.4215C10.864 26.0528 12.778 23.6512 14.3926 25.2771C14.6386 25.5215 14.8524 26.0316 14.8845 26.1166C15.2053 27.0092 15.4298 27.9656 15.5368 28.8901C15.8789 28.4119 16.884 27.073 17.0337 26.8711L17.0444 26.8605C16.8092 21.0901 18.103 15.1073 20.7655 10.0809C22.4549 6.89287 27.0849 -1.41722 31.8966 0.208666C32.5489 0.431827 32.8483 0.931283 32.9552 1.56889C32.5168 -0.492696 29.7153 1.80267 29.0203 2.53592C26.9352 4.66126 25.4917 7.57298 24.1551 10.1765C22.4015 13.5983 21.4819 17.3602 21.0863 21.1645C20.9045 22.9073 20.8403 24.6182 20.9045 26.361C20.958 27.9125 21.4391 32.5776 22.2411 33.3746C23.0217 34.6286 24.4438 35.128 25.4596 33.7678C24.2727 35.3937 21.2467 37.1684 19.3541 35.7444C18.103 34.7986 17.7074 32.7476 17.4721 31.1324C17.2155 31.4831 15.9752 33.1515 15.9752 33.1515L11.9226 38.8793C9.57023 42.503 7.35684 46.1267 5.76362 50.1648C5.19691 51.5675 4.54466 53.2253 4.20249 54.8618C3.96725 55.8395 3.38984 57.306 2.48096 58.0073C1.86079 58.4962 0.951906 58.6662 0.545583 57.8373C0.203416 57.1147 0.331729 55.9458 0.417271 55.4357Z" fill="#F26419"/>
<path fill-rule="evenodd" clip-rule="evenodd" d="M4.01002 57.4547C6.04164 55.3825 7.62416 52.4283 8.85382 49.8354C9.78408 47.8801 10.5005 45.9035 10.971 44.2139C11.1314 43.5975 11.2704 43.0024 11.388 42.4179C12.1044 39.4212 14.5851 35.5318 15.9645 33.6934C15.9645 34.2885 16.0072 34.9261 15.9859 35.4999C15.911 37.8059 15.6009 40.1226 15.0663 42.3754C14.0612 46.9662 7.62416 61.9286 1.1123 59.7926C-0.128056 59.3888 -0.128056 57.9011 0.149954 56.509C-0.128056 59.3569 1.63624 59.155 2.96214 58.3049C3.34707 58.0711 3.67855 57.7948 4.01002 57.4547Z" fill="#F26419"/>
<path fill-rule="evenodd" clip-rule="evenodd" d="M22.626 32.4606C23.1713 31.1217 23.5349 29.7189 23.6632 28.2843C23.6739 28.21 23.6739 28.1249 23.6846 28.0506C23.7701 26.8816 27.5447 26.4459 27.5019 27.0304C27.4484 27.7849 27.3415 28.635 27.1704 29.4852C26.9673 30.4628 26.6786 31.483 26.2402 32.4288C26.2402 32.4288 25.4596 33.9484 24.5186 34.0759C23.5349 34.2034 22.6902 33.4489 22.626 32.4606ZM28.8599 4.79931C29.9291 0.994949 32.6772 0.123559 32.9979 2.00449C33.0514 3.4816 32.0463 6.39332 31.6293 7.57288C30.4103 11.0478 28.7529 14.2783 26.8069 17.4238C26.732 17.5407 26.6572 17.6576 26.593 17.7745C24.8715 20.5481 23.0644 23.2473 21.2039 25.9252C21.2787 21.8339 23.1286 18.1146 23.6632 17.0413C25.62 13.7257 27.4912 9.86825 28.5819 6.15953C28.7102 5.62819 28.7957 5.17125 28.8599 4.79931ZM10.6181 26.3397C9.99793 27.2854 9.55953 28.2631 9.30291 29.3683C9.00351 30.6754 8.81104 33.4702 10.8427 33.3001C10.9175 33.2895 10.971 33.3852 10.9068 33.4383C9.51676 34.6497 5.97747 35.2236 5.42145 32.6519C4.92959 29.6552 6.3838 26.3078 9.06767 24.7882C10.9817 23.7042 13.4303 23.1091 14.5851 25.362C14.5851 25.362 14.4675 25.1495 14.1467 24.8413C14.0505 24.7563 13.858 24.5756 13.5479 24.4694C12.4679 24.1399 11.1421 25.5426 10.6181 26.3397Z" fill="#F26419"/>
</svg>

<svg width="124" height="60" fill="none" xmlns="http://www.w3.org/2000/svg"><path d="M52.446 28.229v-1.767h-1.64c-.67 0-1.21-.539-1.21-1.208h4.154v3.384c-.503.874-1.155 1.543-1.975 2.008-.82.465-1.732.688-2.757.688-1.565 0-2.85-.52-3.875-1.543s-1.528-2.343-1.528-3.924c0-1.58.503-2.9 1.528-3.923 1.025-1.022 2.31-1.543 3.875-1.543.969 0 1.844.204 2.646.632a5.144 5.144 0 0 1 1.937 1.804 1.38 1.38 0 0 1-1.751-.112 3.917 3.917 0 0 0-.764-.576c-.615-.354-1.304-.52-2.068-.52-1.174 0-2.142.408-2.925 1.208-.764.8-1.155 1.822-1.155 3.05 0 1.226.391 2.249 1.155 3.049.764.799 1.751 1.208 2.925 1.208.727 0 1.379-.149 1.956-.465a4.957 4.957 0 0 0 1.472-1.45zm3.95-7.605h8.216c0 .67-.54 1.209-1.211 1.209h-5.72v3.44h4.21c0 .669-.54 1.208-1.21 1.208H57.7v3.403h6.148c.67 0 1.211.539 1.211 1.208h-8.663V20.624zm11.309 10.431V20.624c.428 0 .838.186 1.136.52l6.334 7.29v-6.49c0-.725.578-1.302 1.305-1.302v10.432a1.46 1.46 0 0 1-1.1-.502l-6.371-7.308v6.508a1.29 1.29 0 0 1-1.304 1.283zm11.439-10.431h8.216c0 .67-.54 1.209-1.211 1.209h-5.72v3.44h4.192c0 .669-.54 1.208-1.21 1.208h-2.982v3.403h6.148c.671 0 1.211.539 1.211 1.208h-8.644V20.624zm11.309 10.431V20.624h5.998c1.025 0 1.826.26 2.404.762.577.52.876 1.227.876 2.139 0 .762-.224 1.413-.69 1.933-.447.54-1.062.874-1.807 1.004l2.608 4.593h-.689c-.466 0-.894-.242-1.118-.65L95.8 26.5h-4.061v3.272c.019.707-.559 1.283-1.285 1.283zm5.905-5.783c.652 0 1.155-.148 1.49-.427.336-.298.504-.707.504-1.283 0-.54-.168-.967-.503-1.283-.336-.298-.82-.465-1.435-.465h-4.676v3.458h4.62zm5.31 5.783l5.124-10.431h1.08l5.179 10.431h-.037a2.211 2.211 0 0 1-1.993-1.227l-.801-1.58h-5.776l-.764 1.561a2.236 2.236 0 0 1-2.012 1.246zm3.372-4.035h4.602l-2.31-4.63-2.292 4.63zm9.837-6.396h.093c.671 0 1.211.54 1.211 1.209v8.032h5.627c.67 0 1.211.54 1.211 1.209h-8.142v-10.45zM43.97 38.604h.092c.671 0 1.211.54 1.211 1.209v8.032H50.9c.67 0 1.21.54 1.21 1.209h-8.14v-10.45zm10.842 0h8.216c0 .67-.54 1.209-1.21 1.209h-5.72v3.44h4.192c0 .669-.54 1.208-1.211 1.208h-2.981v3.403h6.148c.67 0 1.21.54 1.21 1.209h-8.644v-10.47zm15.818-.018c1.639 0 2.98.483 3.987 1.45 1.005.967 1.509 2.231 1.509 3.793 0 1.562-.504 2.827-1.49 3.775-.988.948-2.33 1.413-4.006 1.413h-4.49V38.586h4.49zm0 1.208h-3.186v8.033h3.186c1.285 0 2.31-.353 3.036-1.078.746-.726 1.1-1.693 1.1-2.92 0-1.208-.373-2.175-1.137-2.919-.727-.744-1.733-1.116-3-1.116zm17.047 6.416v-1.767h-1.64c-.67 0-1.211-.54-1.211-1.209h4.155v3.384c-.503.874-1.155 1.544-1.975 2.008-.82.465-1.733.688-2.757.688-1.566 0-2.851-.52-3.876-1.543-1.024-1.023-1.527-2.343-1.527-3.923s.503-2.9 1.527-3.924c1.025-1.022 2.31-1.543 3.876-1.543.968 0 1.844.205 2.645.632a5.146 5.146 0 0 1 1.938 1.804l-.168.111c-.484.335-1.118.242-1.528-.185a3.995 3.995 0 0 0-.82-.633c-.614-.353-1.304-.52-2.067-.52-1.174 0-2.143.409-2.925 1.208-.764.8-1.156 1.823-1.156 3.05 0 1.227.392 2.25 1.155 3.05.764.799 1.752 1.208 2.926 1.208.726 0 1.378-.149 1.956-.465a4.678 4.678 0 0 0 1.472-1.432zm4.005-7.606h8.216c0 .67-.54 1.209-1.21 1.209h-5.72v3.44h4.191c0 .669-.54 1.208-1.21 1.208h-2.981v3.403h6.148c.67 0 1.211.54 1.211 1.209h-8.645v-10.47zm11.346 10.376V38.642c0-.019.019-.056.056-.056h5.943c1.025 0 1.826.26 2.404.762.577.52.875 1.227.875 2.138 0 .763-.223 1.414-.689 1.934-.447.52-1.025.855-1.733 1.004-.037 0-.056.038-.037.075l2.534 4.462c.018.037 0 .075-.038.075h-.633c-.447 0-.857-.242-1.081-.633l-2.235-3.904c0-.019-.019-.019-.038-.019h-3.986c-.019 0-.056.019-.056.056v3.272c0 .688-.559 1.246-1.249 1.246-.018-.018-.037-.037-.037-.074zm1.304-5.783c0 .019.019.056.056.056h4.565c.652 0 1.155-.149 1.49-.428.335-.297.503-.706.503-1.283 0-.539-.168-.967-.503-1.283-.335-.297-.82-.465-1.434-.465h-4.639c-.019 0-.056.019-.056.056v3.347h.018z" fill="#fff"/><path fill-rule="evenodd" clip-rule="evenodd" d="M.417 55.436c.14-.49.289-.925.375-1.233.62-2.072 2.32-5.972 2.32-5.972 2.363-5.016 5.795-10.01 8.982-14.548.043-1.573-.118-2.922-.46-4.261-.77-3.37 1.144-5.77 2.759-4.145.246.244.46.755.491.84.321.892.546 1.849.653 2.773.342-.478 1.347-1.817 1.497-2.019l.01-.01c-.235-5.77 1.059-11.754 3.721-16.78 1.69-3.188 6.32-11.498 11.132-9.872.652.223.951.722 1.058 1.36-.438-2.062-3.24.234-3.935.967-2.085 2.125-3.528 5.037-4.865 7.64-1.754 3.422-2.673 7.184-3.069 10.989a36.703 36.703 0 0 0-.181 5.196c.053 1.552.534 6.217 1.336 7.014.78 1.254 2.203 1.753 3.219.393-1.187 1.626-4.213 3.4-6.106 1.976-1.251-.945-1.647-2.996-1.882-4.612a825.85 825.85 0 0 1-1.497 2.02l-4.052 5.727c-2.353 3.624-4.566 7.248-6.16 11.286-.566 1.403-1.218 3.06-1.56 4.697-.236.977-.813 2.444-1.722 3.145-.62.49-1.53.66-1.935-.17-.343-.722-.214-1.891-.129-2.401z" fill="#F26419"/><path fill-rule="evenodd" clip-rule="evenodd" d="M4.01 57.455c2.032-2.072 3.614-5.027 4.844-7.62a35.702 35.702 0 0 0 2.117-5.621c.16-.617.3-1.212.417-1.796.716-2.997 3.197-6.886 4.576-8.725 0 .596.043 1.233.022 1.807a34.752 34.752 0 0 1-.92 6.875C14.061 46.966 7.624 61.93 1.112 59.793c-1.24-.404-1.24-1.892-.962-3.284-.278 2.848 1.486 2.646 2.812 1.796.385-.234.717-.51 1.048-.85zM22.626 32.46a14.51 14.51 0 0 0 1.037-4.176c.01-.074.01-.16.022-.233.085-1.17 3.86-1.605 3.817-1.02a19.64 19.64 0 0 1-.332 2.454c-.203.978-.491 1.998-.93 2.944 0 0-.78 1.52-1.721 1.647-.984.127-1.829-.627-1.893-1.615zM28.86 4.8C29.93.994 32.677.123 32.998 2.003c.053 1.478-.952 4.39-1.369 5.569-1.219 3.475-2.876 6.705-4.822 9.85-.075.118-.15.235-.214.352-1.721 2.773-3.529 5.472-5.39 8.15.076-4.091 1.926-7.81 2.46-8.884 1.957-3.315 3.828-7.173 4.919-10.881.128-.532.214-.989.278-1.36zM10.618 26.34a9.228 9.228 0 0 0-1.315 3.028c-.3 1.307-.492 4.102 1.54 3.932.075-.01.128.085.064.138-1.39 1.212-4.93 1.786-5.486-.786-.491-2.997.963-6.344 3.647-7.864 1.914-1.084 4.362-1.679 5.517.574 0 0-.118-.212-.438-.52-.097-.086-.289-.266-.6-.373-1.08-.33-2.405 1.074-2.929 1.87z" fill="#F26419"/></svg>
